X: 1
T: Jerry McMahon's
M: 4/4
L: 1/8
R: reel
K: Ador
A2AG A2cA|EGDE GEDG|EAAG ABcd|1e/f/ged eAdc:|2edcA G3^G||
Addc d2cA|d2cA G2EG|Addc AB^cd|1e/f/ged cAGG:|2e/f/ged cAdc||
